X: 6
T: The Frost Is All Over
R: jig
M: 6/8
L: 1/8
K: Cmaj
|:G|cec dBG|AcE D2C|EGG GEG|cec d2G|cec dBG|AcE D2C|EGG egf|ecB c2:||:d|ege gec|faf afd|ege gec|~f3 d2f|ege gec|faf afd|ege dcd|ecB c2:|


Tune 448	Setting 448

